client/src/images/nomus-logo-full.svg

<svg width="149" height="45" fill="none" xmlns="http://www.w3.org/2000/svg">
  <g clip-path="url(#clip0)" fill="#295683">
    <path d="M67.4239 21.9396v9.8785c0 .2215-.1859.4016-.4159.4016h-1.5567c-.2294 0-.4159-.1795-.4159-.4016v-9.424c0-1.5143-.3546-2.6435-1.0526-3.3603-.6867-.7116-1.701-1.0757-3.0087-1.0757-.8363 0-1.6015.1929-2.2771.578-.6762.3851-1.2193.9204-1.6015 1.5837-.3935.6957-.5873 1.4392-.5873 2.2743v9.4233c0 .2215-.1858.4017-.4159.4017h-1.5844c-.2293 0-.4159-.1795-.4159-.4017V16.4762c0-.2215.1859-.4016.4159-.4016h1.0592c.2063 0 .3816.1464.4112.3437l.203 1.3527c.8687-.8963 2.0715-1.5379 3.5149-1.8944a.6672.6672 0 01.0718-.0133c2.4577-.3081 4.4488.1896 5.8882 1.4742 1.1752 1.0433 1.7677 2.5951 1.7677 4.6021zM130.732 16.1757v15.3418c0 .2215-.186.4017-.416.4017h-1.053c-.206 0-.381-.1464-.411-.3438l-.203-1.3526c-.943.972-2.23 1.6314-3.902 1.9395a.6177.6177 0 01-.06.0083c-2.288.2152-4.152-.2953-5.518-1.5143-1.169-1.0433-1.762-2.5901-1.762-4.6022v-9.8784c0-.2215.186-.4017.416-.4017h1.551c.23 0 .416.1796.416.4017v9.429c0 1.5093.355 2.6385 1.053 3.3603.704.7225 1.69 1.07 3.009 1.07.836 0 1.601-.1928 2.277-.5729.676-.3851 1.219-.9153 1.601-1.5894.394-.6798.587-1.4392.587-2.2686v-9.4284c0-.2215.186-.4017.416-.4017h1.585c.228 0 .414.1802.414.4017zM84.933 19.5786c-.6037-1.231-1.4572-2.1833-2.5322-2.8307-1.0802-.6473-2.3213-.9739-3.7014-.9739s-2.6264.3266-3.7066.9739c-1.075.6474-1.9285 1.6003-2.5322 2.8307-.5932 1.2044-.8918 2.6703-.8918 4.345v.4494c0 1.6748.2993 3.1413.8918 4.345.6037 1.2254 1.4572 2.1725 2.5322 2.8199 1.0749.6531 2.3212.9847 3.7066.9847 1.3854 0 2.6265-.3316 3.7014-.979 1.075-.6531 1.9285-1.6002 2.5322-2.8256.5932-1.2145.8977-2.6753.8977-4.345v-.4494c-.0007-1.669-.3052-3.1298-.8977-4.345zm-6.2336 10.7562c-1.4018 0-2.5097-.4761-3.3857-1.45-.8812-.979-1.33-2.4348-1.33-4.3291v-.8135c0-1.8892.4488-3.3501 1.33-4.3342.8753-.9739 1.9839-1.45 3.3857-1.45 1.3966 0 2.5045.4761 3.3798 1.45.8812.9848 1.33 2.4456 1.33 4.3342v.8135c0 1.8943-.4488 3.3501-1.33 4.3291-.8753.9739-1.9839 1.45-3.3798 1.45zM112.193 21.9389v9.8784c0 .2216-.186.4017-.416.4017h-1.584c-.23 0-.416-.1795-.416-.4017v-9.4239c0-2.986-1.136-4.436-3.474-4.436-1.119 0-2.012.4067-2.726 1.2361-.72.8403-1.086 1.9211-1.086 3.1999v9.4233c0 .2215-.186.4017-.416.4017h-1.585c-.229 0-.415-.1795-.415-.4017v-9.4233c0-2.986-1.136-4.436-3.4691-4.436-1.1251 0-2.0168.4067-2.726 1.2361-.7256.8403-1.0914 1.916-1.0914 3.1999v9.4233c0 .2215-.1859.4017-.4159.4017h-1.5844c-.2294 0-.4159-.1795-.4159-.4017V16.4755c0-.2215.1859-.4016.4159-.4016h1.0578c.2043 0 .3783.1438.4106.3386l.2103 1.2826c.7869-.9058 1.8678-1.5487 3.2018-1.8491a.8261.8261 0 01.0692-.0121c1.5079-.1802 2.8755.0465 4.0322.6461.5759.3036 1.0699.6963 1.4799 1.1808.155.182.444.1935.609.021.397-.4157.868-.7823 1.418-1.1.92-.5353 1.984-.8077 3.152-.8077 1.679 0 3.081.5296 4.151 1.5735.537.5245.936 1.1718 1.208 1.937.271.7651.405 1.6537.405 2.6543zM149 27.4348c0 1.7766-.654 3.093-1.945 3.9115-1.23.7811-2.903 1.1776-4.965 1.1776-1.573 0-2.875-.2514-3.872-.7384-1.009-.492-1.746-1.1075-2.194-1.8357-.039-.0586-.072-.1229-.106-.1821h-.005c-.444-.69-.67-1.4125-.67-2.1457l.032-.4494c.006-.1019.051-.1929.122-.2623.006 0 .006 0 .006-.0051a.4254.4254 0 01.282-.1069h1.557c.228 0 .416.182.416.4016v.3909c0 .4551.177.8937.548 1.3431.189.2355.433.4443.732.6263.848.5137 2.044.776 3.557.776 1.33 0 2.371-.2515 3.081-.7493.681-.471 1.008-1.0808 1.008-1.8516 0-.5888-.172-1.0331-.537-1.354-.399-.3641-.903-.6422-1.49-.8294-.638-.203-1.502-.4067-2.577-.6047-1.285-.2406-2.327-.4977-3.103-.7492-.825-.2673-1.54-.7008-2.122-1.2896-.615-.6155-.925-1.466-.925-2.5258 0-1.3698.576-2.4939 1.712-3.3501 1.108-.8345 2.742-1.2578 4.859-1.2578 1.386 0 2.555.2247 3.48.6741.936.4494 1.634 1.0331 2.078 1.7231.443.69.67 1.4125.67 2.1458l-.033.4494c-.016.2139-.194.3743-.416.3743h-1.551c-.228 0-.416-.1821-.416-.4017v-.3908c0-.5404-.255-1.0649-.776-1.6054-.499-.5137-1.646-.7867-3.319-.7867-2.033 0-2.837.4016-3.158.7384-.482.5085-.715 1.0432-.715 1.6212 0 .4653.16.8294.481 1.1133.371.3208.843.5729 1.402.7441.61.1872 1.463.3909 2.544.6047 1.274.2623 2.338.5296 3.152.7919.87.2782 1.618.7276 2.222 1.3323.633.6378.954 1.4882.954 2.5321zM.0082 15.5823c1.4434-4.613 4.5226-8.8351 8.7447-11.6231 2.0939-1.4074 4.4382-2.4863 6.9131-3.1668 2.4808-.6531 5.0808-.9236 7.6552-.7365 2.5743.1662 5.1283.7225 7.5333 1.6652 2.4049.951 4.6003 2.3565 6.5314 4.0248 1.9133 1.683 3.6177 3.6296 4.8271 5.8536 1.2266 2.2088 2.0814 4.6022 2.5184 7.0624.462 2.4608.3987 4.9866-.0046 7.4341-.4192 2.4462-1.2128 4.8453-2.4597 7.0096-2.4544 4.3259-6.3015 7.9395-10.9757 9.9115-2.318 1.0032-4.7961 1.6493-7.3184 1.8937-1.2641.0585-2.5289.1362-3.791.0477-1.2608-.0967-2.5131-.2731-3.7429-.5506-4.9207-1.1177-9.3939-3.8638-12.5383-7.6378-.1075-.1292-.0864-.3176.0474-.422.1305-.1012.3203-.084.429.0369l.0027.0032c3.1952 3.5665 7.6031 6.042 12.3129 6.9402 1.1778.2227 2.3701.3475 3.5637.3984 1.1962.0427 2.3865-.0757 3.5702-.1693 2.3595-.3132 4.6465-1 6.7602-2.0045 4.2524-1.9828 7.6868-5.4213 9.699-9.4417 1.0321-2.0045 1.6352-4.1897 1.8935-6.3832.2346-2.1948.1687-4.4316-.3612-6.5589-.4903-2.1298-1.2957-4.1788-2.4313-6.0452-1.1481-1.8561-2.5526-3.5633-4.2135-5.0076-1.6582-1.4481-3.557-2.6226-5.5844-3.5423-2.0458-.8861-4.2431-1.431-6.4873-1.6748-2.2481-.2794-4.5522-.1407-6.7859.3196-2.2454.4309-4.4349 1.2317-6.4517 2.366C7.8453 6.7192 6.0243 8.194 4.3931 9.877c-1.6194 1.7001-2.9375 3.6849-3.99 5.8351l-.0067.0134c-.0487.1005-.1733.1432-.2768.0954a.197.197 0 01-.1114-.2387z"/>
    <path d="M20.6431 24.6926c-.2616 0-.5134-.1006-.6993-.2794-.1924-.1859-.2972-.4405-.2886-.7034.0065-.2152.2016-5.3017 3.6532-8.6353 3.4595-3.3405 7.0515-4.3603 8.9365-2.541 1.8856 1.8217.8284 5.2902-2.6311 8.6308-3.4509 3.3335-8.7189 3.5219-8.9404 3.5283h-.0303zm9.1961-11.147c-1.1843 0-3.0495.8669-5.1322 2.8784-2.0109 1.9421-2.7115 4.718-2.952 6.2406 1.5765-.2324 4.4507-.909 6.4616-2.8511 2.8479-2.7511 3.4812-5.1088 2.631-5.9299-.2293-.2209-.5727-.338-1.0084-.338zM13.9949 22.0847a1.011 1.011 0 01-.6314-.2202c-.1259-.1012-3.0806-2.5181-2.14-5.9325.3908-1.4189 1.2245-2.5462 2.3476-3.1744.8884-.4965 1.9028-.6334 2.8538-.3871.9656.2496 1.7802.8689 2.2949 1.7429.6426 1.091.7718 2.4634.3632 3.8638-.9643 3.3055-4.7375 4.0592-4.8976 4.0897a1.0058 1.0058 0 01-.1905.0178zm1.4875-7.9242c-.3104 0-.6228.084-.9201.2508-.6557.3666-1.1764 1.1006-1.4282 2.0127-.4587 1.6684.5649 3.0318 1.1409 3.6378.8146-.2686 2.4359-.993 2.9059-2.6015.2603-.8918.1944-1.767-.1786-2.4017-.2551-.4328-.6314-.7243-1.0882-.8427a1.6847 1.6847 0 00-.4317-.0554zM27.3354 33.0134c-2.7859 0-4.6617-2.14-4.7526-2.245-.1898-.2209-.2663-.5124-.2089-.7944.0316-.1547.8113-3.7982 4.2352-4.7295 1.4487-.3934 2.8696-.2705 3.9993.3507.9049.4972 1.5462 1.2846 1.8052 2.2165.2551.9204.1127 1.8987-.4014 2.7568-.6498 1.0853-1.817 1.8905-3.2861 2.2673a5.5803 5.5803 0 01-1.3907.1776zm-2.8881-3.1279c.6268.5563 2.0425 1.5487 3.77 1.1044.9451-.2425 1.7037-.7448 2.0833-1.3788.2531-.4213.323-.8726.203-1.3055-.1226-.4411-.4244-.8046-.8726-1.0509-.6571-.3603-1.5647-.424-2.4854-.1725-1.6846.4583-2.4261 2.0191-2.6983 2.8033z"/>
    <path d="M11.6335 22.5978a4.2775 4.2775 0 01-2.5428-.8345c-1.0578-.7772-1.6648-1.9599-1.6648-3.2438v-.9548h1.9772v.9548c0 .6824.3223 1.3106.8852 1.7237.5628.4138 1.276.5456 1.9555.3635l2.4412-.6524.5273 1.8402-2.4406.6524a4.358 4.358 0 01-1.1382.1509z"/>
    <path d="M22.9755 31.1547l-.9814-.9497c-1.3319-1.2864-2.2665-3.5232-2.37-5.4825-2.0293-.0993-4.3453-1.0025-5.6773-2.289l-.9827-.9491 1.3979-1.3501.9827.9491c1.1468 1.1076 3.565 1.9033 5.1738 1.7078a1.0048 1.0048 0 01.8238.2718c.2162.2088.3203.5029.2821.7957-.2056 1.5544.6215 3.8893 1.769 4.9975l.982.951-1.3999 1.3475z"/>
    <path d="M27.1963 36.6602H26.062c-1.301 0-2.5091-.5659-3.3138-1.5532s-1.0921-2.254-.7876-3.4755l.6538-2.6244 1.9225.4475-.6544 2.6238c-.1615.6492-.0093 1.3227.4191 1.8472.4278.5245 1.0697.825 1.7611.825h1.1343v1.9096h-.0007z"/>
  </g>
  <defs>
    <clipPath id="clip0">
      <path fill="#fff" d="M0 0h149v45H0z"/>
    </clipPath>
  </defs>
</svg>

<svg width="149" height="45" viewBox="0 0 149 45" fill="none" xmlns="http://www.w3.org/2000/svg">
<g clip-path="url(#clip0)">
<path d="M67.4239 21.9396V31.8181C67.4239 32.0396 67.238 32.2197 67.008 32.2197H65.4513C65.2219 32.2197 65.0354 32.0402 65.0354 31.8181V22.3941C65.0354 20.8798 64.6808 19.7506 63.9828 19.0338C63.2961 18.3222 62.2818 17.9581 60.9741 17.9581C60.1378 17.9581 59.3726 18.151 58.697 18.5361C58.0208 18.9212 57.4777 19.4565 57.0955 20.1198C56.702 20.8155 56.5082 21.559 56.5082 22.3941V31.8174C56.5082 32.0389 56.3224 32.2191 56.0923 32.2191H54.5079C54.2786 32.2191 54.092 32.0396 54.092 31.8174V16.4762C54.092 16.2547 54.2779 16.0746 54.5079 16.0746H55.5671C55.7734 16.0746 55.9487 16.221 55.9783 16.4183L56.1813 17.771C57.05 16.8747 58.2528 16.2331 59.6962 15.8766C59.7193 15.8709 59.7443 15.8664 59.768 15.8633C62.2257 15.5552 64.2168 16.0529 65.6562 17.3375C66.8314 18.3808 67.4239 19.9326 67.4239 21.9396Z" fill="#295683"/>
<path d="M130.732 16.1757V31.5175C130.732 31.739 130.546 31.9192 130.316 31.9192H129.263C129.057 31.9192 128.882 31.7728 128.852 31.5754L128.649 30.2228C127.706 31.1948 126.419 31.8542 124.747 32.1623C124.727 32.1662 124.707 32.1687 124.687 32.1706C122.399 32.3858 120.535 31.8753 119.169 30.6563C118 29.613 117.407 28.0662 117.407 26.0541V16.1757C117.407 15.9542 117.593 15.774 117.823 15.774H119.374C119.604 15.774 119.79 15.9536 119.79 16.1757V25.6047C119.79 27.114 120.145 28.2432 120.843 28.965C121.547 29.6875 122.533 30.035 123.852 30.035C124.688 30.035 125.453 29.8422 126.129 29.4621C126.805 29.077 127.348 28.5468 127.73 27.8727C128.124 27.1929 128.317 26.4335 128.317 25.6041V16.1757C128.317 15.9542 128.503 15.774 128.733 15.774H130.318C130.546 15.774 130.732 15.9542 130.732 16.1757Z" fill="#295683"/>
<path d="M84.933 19.5786C84.3293 18.3476 83.4758 17.3953 82.4008 16.7479C81.3206 16.1006 80.0795 15.774 78.6994 15.774C77.3193 15.774 76.073 16.1006 74.9928 16.7479C73.9178 17.3953 73.0643 18.3482 72.4606 19.5786C71.8674 20.783 71.5688 22.2489 71.5688 23.9236V24.373C71.5688 26.0478 71.8681 27.5143 72.4606 28.718C73.0643 29.9434 73.9178 30.8905 74.9928 31.5379C76.0677 32.191 77.314 32.5226 78.6994 32.5226C80.0848 32.5226 81.3259 32.191 82.4008 31.5436C83.4758 30.8905 84.3293 29.9434 84.933 28.718C85.5262 27.5035 85.8307 26.0427 85.8307 24.373V23.9236C85.83 22.2546 85.5255 20.7938 84.933 19.5786ZM78.6994 30.3348C77.2976 30.3348 76.1897 29.8587 75.3137 28.8848C74.4325 27.9058 73.9837 26.45 73.9837 24.5557V23.7422C73.9837 21.853 74.4325 20.3921 75.3137 19.408C76.189 18.4341 77.2976 17.958 78.6994 17.958C80.096 17.958 81.2039 18.4341 82.0792 19.408C82.9604 20.3928 83.4092 21.8536 83.4092 23.7422V24.5557C83.4092 26.45 82.9604 27.9058 82.0792 28.8848C81.2039 29.8587 80.0953 30.3348 78.6994 30.3348Z" fill="#295683"/>
<path d="M112.193 21.9389V31.8173C112.193 32.0389 112.007 32.219 111.777 32.219H110.193C109.963 32.219 109.777 32.0395 109.777 31.8173V22.3934C109.777 19.4074 108.641 17.9574 106.303 17.9574C105.184 17.9574 104.291 18.3641 103.577 19.1935C102.857 20.0338 102.491 21.1146 102.491 22.3934V31.8167C102.491 32.0382 102.305 32.2184 102.075 32.2184H100.49C100.261 32.2184 100.075 32.0389 100.075 31.8167V22.3934C100.075 19.4074 98.939 17.9574 96.6059 17.9574C95.4808 17.9574 94.5891 18.3641 93.8799 19.1935C93.1543 20.0338 92.7885 21.1095 92.7885 22.3934V31.8167C92.7885 32.0382 92.6026 32.2184 92.3726 32.2184H90.7882C90.5588 32.2184 90.3723 32.0389 90.3723 31.8167V16.4755C90.3723 16.254 90.5582 16.0739 90.7882 16.0739H91.846C92.0503 16.0739 92.2243 16.2177 92.2566 16.4125L92.4669 17.6951C93.2538 16.7893 94.3347 16.1464 95.6687 15.846C95.6911 15.8409 95.7148 15.8371 95.7379 15.8339C97.2458 15.6537 98.6134 15.8804 99.7701 16.48C100.346 16.7836 100.84 17.1763 101.25 17.6608C101.405 17.8428 101.694 17.8543 101.859 17.6818C102.256 17.2661 102.727 16.8995 103.277 16.5818C104.197 16.0465 105.261 15.7741 106.429 15.7741C108.108 15.7741 109.51 16.3037 110.58 17.3476C111.117 17.8721 111.516 18.5194 111.788 19.2846C112.059 20.0497 112.193 20.9383 112.193 21.9389Z" fill="#295683"/>
<path d="M149 27.4348C149 29.2114 148.346 30.5278 147.055 31.3463C145.825 32.1274 144.152 32.5239 142.09 32.5239C140.517 32.5239 139.215 32.2725 138.218 31.7855C137.209 31.2935 136.472 30.678 136.024 29.9498C135.985 29.8912 135.952 29.8269 135.918 29.7677H135.913C135.469 29.0777 135.243 28.3552 135.243 27.622L135.275 27.1726C135.281 27.0707 135.326 26.9797 135.397 26.9103C135.403 26.9103 135.403 26.9103 135.403 26.9052C135.475 26.8409 135.575 26.7983 135.685 26.7983H137.242C137.47 26.7983 137.658 26.9803 137.658 27.1999V27.5908C137.658 28.0459 137.835 28.4845 138.206 28.9339C138.395 29.1694 138.639 29.3782 138.938 29.5602C139.786 30.0739 140.982 30.3362 142.495 30.3362C143.825 30.3362 144.866 30.0847 145.576 29.5869C146.257 29.1159 146.584 28.5061 146.584 27.7353C146.584 27.1465 146.412 26.7022 146.047 26.3813C145.648 26.0172 145.144 25.7391 144.557 25.5519C143.919 25.3489 143.055 25.1452 141.98 24.9472C140.695 24.7066 139.653 24.4495 138.877 24.198C138.052 23.9307 137.337 23.4972 136.755 22.9084C136.14 22.2929 135.83 21.4424 135.83 20.3826C135.83 19.0128 136.406 17.8887 137.542 17.0325C138.65 16.198 140.284 15.7747 142.401 15.7747C143.787 15.7747 144.956 15.9994 145.881 16.4488C146.817 16.8982 147.515 17.4819 147.959 18.1719C148.402 18.8619 148.629 19.5844 148.629 20.3177L148.596 20.7671C148.58 20.981 148.402 21.1414 148.18 21.1414H146.629C146.401 21.1414 146.213 20.9593 146.213 20.7397V20.3489C146.213 19.8085 145.958 19.284 145.437 18.7435C144.938 18.2298 143.791 17.9568 142.118 17.9568C140.085 17.9568 139.281 18.3584 138.96 18.6952C138.478 19.2037 138.245 19.7384 138.245 20.3164C138.245 20.7817 138.405 21.1458 138.726 21.4297C139.097 21.7505 139.569 22.0026 140.128 22.1738C140.738 22.361 141.591 22.5647 142.672 22.7785C143.946 23.0408 145.01 23.3081 145.824 23.5704C146.694 23.8486 147.442 24.298 148.046 24.9027C148.679 25.5405 149 26.3909 149 27.4348Z" fill="#295683"/>
<path d="M0.00823962 15.5823C1.45162 10.9693 4.53084 6.74719 8.7529 3.95916C10.8468 2.55178 13.1911 1.47285 15.666 0.792388C18.1468 0.139301 20.7468 -0.131228 23.3212 0.0559143C25.8955 0.222051 28.4495 0.778384 30.8545 1.7211C33.2594 2.67208 35.4548 4.07756 37.3859 5.74592C39.2992 7.42893 41.0036 9.37546 42.213 11.5995C43.4396 13.8083 44.2944 16.2017 44.7314 18.6619C45.1934 21.1227 45.1301 23.6485 44.7268 26.096C44.3076 28.5422 43.514 30.9413 42.2671 33.1056C39.8127 37.4315 35.9656 41.0451 31.2914 43.0171C28.9734 44.0203 26.4953 44.6664 23.973 44.9108C22.7089 44.9693 21.4441 45.047 20.182 44.9585C18.9212 44.8618 17.6689 44.6854 16.4391 44.4079C11.5184 43.2902 7.04523 40.5441 3.90076 36.7701C3.79333 36.6409 3.81442 36.4525 3.94821 36.3481C4.07871 36.2469 4.26853 36.2641 4.37727 36.385L4.37991 36.3882C7.57513 39.9547 11.983 42.4302 16.6928 43.3284C17.8706 43.5511 19.0629 43.6759 20.2565 43.7268C21.4527 43.7695 22.643 43.6511 23.8267 43.5575C26.1862 43.2443 28.4732 42.5575 30.5869 41.553C34.8393 39.5702 38.2737 36.1317 40.2859 32.1113C41.318 30.1068 41.9211 27.9216 42.1794 25.7281C42.414 23.5333 42.3481 21.2965 41.8182 19.1692C41.3279 17.0394 40.5225 14.9904 39.3869 13.124C38.2388 11.2679 36.8343 9.56069 35.1734 8.11639C33.5152 6.66826 31.6164 5.49385 29.589 4.57406C27.5432 3.688 25.3459 3.14312 23.1017 2.89933C20.8536 2.61989 18.5495 2.75865 16.3158 3.21887C14.0704 3.6498 11.8809 4.45057 9.86411 5.58488C7.84535 6.71919 6.02431 8.19404 4.39309 9.87705C2.77374 11.5772 1.45558 13.562 0.403028 15.7122L0.396437 15.7256C0.347665 15.8261 0.223099 15.8688 0.119624 15.821C0.0240575 15.779 -0.0207599 15.6759 0.00823962 15.5823Z" fill="#295683"/>
<path d="M20.6431 24.6926C20.3815 24.6926 20.1297 24.592 19.9438 24.4132C19.7514 24.2273 19.6466 23.9727 19.6552 23.7098C19.6617 23.4946 19.8568 18.4081 23.3084 15.0745C26.7679 11.734 30.3599 10.7142 32.2449 12.5335C34.1305 14.3552 33.0733 17.8237 29.6138 21.1643C26.1629 24.4978 20.8949 24.6862 20.6734 24.6926C20.6629 24.6926 20.653 24.6926 20.6431 24.6926ZM29.8392 13.5456C28.6549 13.5456 26.7897 14.4125 24.707 16.424C22.6961 18.3661 21.9955 21.142 21.755 22.6646C23.3315 22.4322 26.2057 21.7556 28.2166 19.8135C31.0645 17.0624 31.6978 14.7047 30.8476 13.8836C30.6183 13.6627 30.2749 13.5456 29.8392 13.5456Z" fill="#295683"/>
<path d="M13.9949 22.0847C13.7662 22.0847 13.5421 22.0077 13.3635 21.8645C13.2376 21.7633 10.2829 19.3464 11.2235 15.932C11.6143 14.5131 12.448 13.3858 13.5711 12.7576C14.4595 12.2611 15.4739 12.1242 16.4249 12.3705C17.3905 12.6201 18.2051 13.2394 18.7198 14.1134C19.3624 15.2044 19.4916 16.5768 19.083 17.9772C18.1187 21.2827 14.3455 22.0364 14.1854 22.0669C14.1227 22.079 14.0588 22.0847 13.9949 22.0847ZM15.4824 14.1605C15.172 14.1605 14.8596 14.2445 14.5623 14.4113C13.9066 14.7779 13.3859 15.5119 13.1341 16.424C12.6754 18.0924 13.699 19.4558 14.275 20.0618C15.0896 19.7932 16.7109 19.0688 17.1809 17.4603C17.4412 16.5685 17.3753 15.6933 17.0023 15.0586C16.7472 14.6258 16.3709 14.3343 15.9141 14.2159C15.7718 14.1783 15.6274 14.1605 15.4824 14.1605Z" fill="#295683"/>
<path d="M27.3354 33.0134C24.5495 33.0134 22.6737 30.8734 22.5828 30.7684C22.393 30.5475 22.3165 30.256 22.3739 29.974C22.4055 29.8193 23.1852 26.1758 26.6091 25.2445C28.0578 24.8511 29.4787 24.974 30.6084 25.5952C31.5133 26.0924 32.1546 26.8798 32.4136 27.8117C32.6687 28.7321 32.5263 29.7104 32.0122 30.5685C31.3624 31.6538 30.1952 32.459 28.7261 32.8358C28.2416 32.96 27.777 33.0134 27.3354 33.0134ZM24.4473 29.8855C25.0741 30.4418 26.4898 31.4342 28.2173 30.9899C29.1624 30.7474 29.921 30.2451 30.3006 29.6111C30.5537 29.1898 30.6236 28.7385 30.5036 28.3056C30.381 27.8645 30.0792 27.501 29.631 27.2547C28.9739 26.8944 28.0663 26.8307 27.1456 27.0822C25.461 27.5405 24.7195 29.1013 24.4473 29.8855Z" fill="#295683"/>
<path d="M11.6335 22.5978C10.7253 22.5978 9.83681 22.3126 9.09074 21.7633C8.03291 20.9861 7.4259 19.8034 7.4259 18.5195V17.5647H9.40314V18.5195C9.40314 19.2019 9.72543 19.8301 10.2883 20.2432C10.8511 20.657 11.5643 20.7888 12.2438 20.6067L14.685 19.9543L15.2123 21.7945L12.7717 22.4469C12.3947 22.5488 12.0124 22.5978 11.6335 22.5978Z" fill="#295683"/>
<path d="M22.9755 31.1547L21.9941 30.205C20.6622 28.9186 19.7276 26.6818 19.6241 24.7225C17.5948 24.6232 15.2788 23.72 13.9468 22.4335L12.9641 21.4844L14.362 20.1343L15.3447 21.0834C16.4915 22.191 18.9097 22.9867 20.5185 22.7912C20.8223 22.7524 21.1261 22.8543 21.3423 23.063C21.5585 23.2718 21.6626 23.5659 21.6244 23.8587C21.4188 25.4131 22.2459 27.748 23.3934 28.8562L24.3754 29.8072L22.9755 31.1547Z" fill="#295683"/>
<path d="M27.1963 36.6602H26.062C24.761 36.6602 23.5529 36.0943 22.7482 35.107C21.9435 34.1197 21.6561 32.853 21.9606 31.6315L22.6144 29.0071L24.5369 29.4546L23.8825 32.0784C23.721 32.7276 23.8732 33.4011 24.3016 33.9256C24.7294 34.4501 25.3713 34.7506 26.0627 34.7506H27.197V36.6602H27.1963Z" fill="#295683"/>
</g>
<defs>
<clipPath id="clip0">
<rect width="149" height="45" fill="white"/>
</clipPath>
</defs>
</svg>
